svgs/thin/universal-access.svg

<svg xmlns="http://www.w3.org/2000/svg" viewBox="0 0 512 512"><!--! Font Awesome Pro 6.3.0 by @fontawesome - https://fontawesome.com License - https://fontawesome.com/license (Commercial License) Copyright 2023 Fonticons, Inc. --><path d="M256 184c26.51 0 48-21.49 48-48s-21.49-48-48-48s-48 21.49-48 48S229.5 184 256 184zM256 104c17.64 0 32 14.36 32 32s-14.36 32-32 32s-32-14.36-32-32S238.4 104 256 104zM365.3 184.5l-25.84 9.219c-53.06 18.94-113.9 18.94-166.9 0L146.7 184.5c-4-1.469-8.75 .6562-10.22 4.844c-1.5 4.156 .6875 8.75 4.844 10.22l25.84 9.219C183.1 214.4 199.4 218.4 216 220.9v89.77l-31.59 94.78c-1.406 4.188 .875 8.719 5.062 10.12c4.25 1.438 8.719-.8438 10.12-5.062L229.8 320h52.44l30.19 90.53C313.5 413.9 316.7 416 320 416c.8438 0 1.688-.125 2.531-.4062c4.188-1.406 6.469-5.938 5.062-10.12L296 310.7V220.9c16.55-2.531 32.93-6.479 48.84-12.17l25.84-9.219c4.156-1.469 6.344-6.062 4.844-10.22C374.1 185.1 369.4 183 365.3 184.5zM280 304h-48V222.1C239.1 223.7 247.1 224.1 256 224.1c8.01 0 16.02-.4219 24-1.148V304zM256 0C114.6 0 0 114.6 0 256s114.6 256 256 256s256-114.6 256-256S397.4 0 256 0zM256 496c-132.3 0-240-107.7-240-240S123.7 16 256 16s240 107.7 240 240S388.3 496 256 496z"/></svg>

<svg xmlns="http://www.w3.org/2000/svg" viewBox="0 0 512 512"><!-- Font Awesome Pro 6.0.0-alpha2 by @fontawesome - https://fontawesome.com License - https://fontawesome.com/license (Commercial License) --><path d="M256 184C282.51 184 304 162.51 304 136S282.51 88 256 88S208 109.49 208 136S229.49 184 256 184ZM256 104C273.645 104 288 118.355 288 136S273.645 168 256 168S224 153.645 224 136S238.355 104 256 104ZM256 16C123.451 16 16 123.451 16 256S123.451 496 256 496S496 388.549 496 256S388.549 16 256 16ZM256 480C132.486 480 32 379.514 32 256S132.486 32 256 32S480 132.486 480 256S379.514 480 256 480ZM365.312 184.469L339.469 193.687C286.406 212.625 225.594 212.625 172.531 193.687L146.688 184.469C142.688 183 137.938 185.125 136.469 189.312C134.969 193.469 137.156 198.062 141.313 199.531L167.156 208.75C183.07 214.441 199.445 218.389 216 220.92V310.688L184.406 405.469C183 409.656 185.281 414.188 189.469 415.594C193.719 417.031 198.187 414.75 199.594 410.531L229.781 320H282.219L312.406 410.531C313.531 413.875 316.656 416 320 416C320.844 416 321.688 415.875 322.531 415.594C326.719 414.188 329 409.656 327.594 405.469L296 310.688V220.92C312.555 218.389 328.93 214.441 344.844 208.75L370.688 199.531C374.844 198.063 377.031 193.469 375.531 189.313C374.062 185.125 369.375 183 365.312 184.469ZM280 304H232V222.977C239.984 223.703 247.988 224.125 256 224.125C264.01 224.125 272.016 223.703 280 222.977V304Z"/></svg>
